X: 7
T: Three Sea Captains, The
Z: Fernando Durbán Galnares
S: https://thesession.org/tunes/147#setting48199
R: jig
M: 6/8
L: 1/8
K: Dmaj
|:A|"D"dAd fdf|"A"g2 e c2 e|"D"dAd fdf|a2 f d2 f|"G"gbg e2 g|
[1 "D"faf d2f|"G"e2 f g2 f|"A"efd cB:|
[2"D"faf d2 c|"G"Bgf "A"edc|"D"d3 d2||
|:a|"D"d'2 d' agf|"G"efg "A"abc'|"D"d'2d' afa|"G"bge e2c'|
"D"d'2 e' f'd'b|"A"c'2 d' e'c'a|"G"b2 c' "D"d'2 c'|"A"ba^g a2a|
"G"g2 a bge|"D"f2 g afd|"G"e2 f g2 f|"A"efd cBA|
"D"dAd fdf|"A"g2 e c2 e|"D"dAd fdf|a2 f d2 f|
"G"gbg e2 g|"D"faf d2c|"G"Bgf "A"edc|"D"d3 d2:|

%-------------------- TUNE SEPARATOR --------------------%

